X:1
T:"Limber Up" -- Reel
R:reel
B:Ryan's Mammoth Collection
N: 391
Z: Contributed by Ray Davies,  ray:davies99.freeserve.co.uk
M:2/4
L:1/16
K:G
v.G2B"4"e .d2B"4"e | .d2B"4"e dB.g2 |"^SEGUE" G2Be d2Be | \
d2cB (Ac).B.A |
G2Be d2Be | d2Be dBg2 | G2Be .d2.B2 | AcBA G2 z2 H:|
|:v"1"b2gb "1"a2fa | "1"g2eg "^SEGUE"f^dB2 | b2gb a2fa | \
gfga b2ga |
b2gb a2fa | g2eg f^dB2 | B2^df bagf | agfg e2d2 "_D.C.":|
